Numix-Light-GalliumOS/16/status/spotify-indicator.svg

<?xml version="1.0" encoding="UTF-8" standalone="no"?>
<svg
   xmlns:dc="http://purl.org/dc/elements/1.1/"
   xmlns:cc="http://creativecommons.org/ns#"
   xmlns:rdf="http://www.w3.org/1999/02/22-rdf-syntax-ns#"
   xmlns:svg="http://www.w3.org/2000/svg"
   xmlns="http://www.w3.org/2000/svg"
   xmlns:sodipodi="http://sodipodi.sourceforge.net/DTD/sodipodi-0.dtd"
   xmlns:inkscape="http://www.inkscape.org/namespaces/inkscape"
   width="16"
   viewBox="0 0 4.5155556 4.5155556"
   height="16"
   id="svg2"
   version="1.1"
   inkscape:version="0.91 r"
   sodipodi:docname="spotify-indicator.svg">
  <metadata
     id="metadata53">
    <rdf:RDF>
      <cc:Work
         rdf:about="">
        <dc:format>image/svg+xml</dc:format>
        <dc:type
           rdf:resource="http://purl.org/dc/dcmitype/StillImage" />
        <dc:title />
      </cc:Work>
    </rdf:RDF>
  </metadata>
  <sodipodi:namedview
     pagecolor="#ffffff"
     bordercolor="#666666"
     borderopacity="1"
     objecttolerance="10"
     gridtolerance="10"
     guidetolerance="10"
     inkscape:pageopacity="0"
     inkscape:pageshadow="2"
     inkscape:window-width="1366"
     inkscape:window-height="747"
     id="namedview51"
     showgrid="true"
     inkscape:zoom="13.92"
     inkscape:cx="-9.6903306"
     inkscape:cy="2.0578164"
     inkscape:window-x="0"
     inkscape:window-y="21"
     inkscape:window-maximized="1"
     inkscape:current-layer="svg2">
    <inkscape:grid
       type="xygrid"
       id="grid9949" />
  </sodipodi:namedview>
  <defs
     id="defs4" />
  <path
     style="fill:#353535;fill-opacity:1;fill-rule:evenodd"
     d="m 2.2577776,0.61576354 c -0.9096758,0 -1.64201406,0.73233826 -1.64201406,1.64201406 0,0.9096759 0.73233826,1.6420141 1.64201406,1.6420141 0.9096759,0 1.6420141,-0.7323382 1.6420141,-1.6420141 0,-0.9096758 -0.7323382,-1.64201406 -1.6420141,-1.64201406 z M 1.8216176,1.62278 c 0.4872901,-0.014449 1.0697948,0.09407 1.4624189,0.3591906 0.062781,0.042579 0.080793,0.1294845 0.038485,0.1924235 -0.042301,0.062798 -0.1234891,0.080768 -0.1860096,0.038485 C 2.6814629,1.9056556 1.9006761,1.8392547 1.4431847,1.9499 1.3693367,1.9675933 1.2939868,1.9208344 1.2764177,1.8472741 1.2585608,1.7738362 1.3054747,1.7046305 1.3790435,1.6869212 1.5104583,1.6551741 1.6591876,1.6275965 1.8216176,1.62278 Z m 0.032071,0.5131294 c 0.4327706,-0.00795 0.885939,0.112395 1.2122684,0.3399482 0.051672,0.036192 0.061429,0.1022438 0.025656,0.1539388 C 3.0552805,2.6814584 2.989229,2.7040474 2.9376737,2.6682814 2.5588544,2.4035815 1.9544774,2.2913461 1.4816694,2.4053024 1.4203064,2.4202204 1.3618936,2.3832823 1.346973,2.3219188 1.3321938,2.2605641 1.3691487,2.2018695 1.4303565,2.1872223 1.5654609,2.1546392 1.7094315,2.1385567 1.8536882,2.1359094 Z m 0.012828,0.4746447 c 0.3888854,-0.00473 0.7217619,0.095141 1.0006023,0.2886353 0.041617,0.028467 0.04771,0.080252 0.019242,0.1218682 -0.028877,0.041451 -0.080686,0.054377 -0.1218677,0.025657 C 2.4333539,2.8169903 1.9972838,2.7419522 1.4816694,2.8286341 1.432041,2.8368113 1.387218,2.8014316 1.3790435,2.7516647 1.3707257,2.7020284 1.4062371,2.6573435 1.4560129,2.6490388 1.5970465,2.6252731 1.736888,2.6121323 1.8665165,2.6105541 Z"
     id="rect31"
     inkscape:connector-curvature="0" />
</svg>

<svg xmlns="http://www.w3.org/2000/svg" width="16" viewBox="0 0 4.5155556 4.5155556" height="16">
 <path d="m 2.258 0.616 c -0.91 0 -1.642 0.732 -1.642 1.642 0 0.91 0.732 1.642 1.642 1.642 0.91 0 1.642 -0.732 1.642 -1.642 0 -0.91 -0.732 -1.642 -1.642 -1.642 z m -0.436 1.01 c 0.487 -0.014 1.07 0.094 1.462 0.359 0.063 0.043 0.081 0.129 0.038 0.192 -0.042 0.063 -0.123 0.081 -0.186 0.038 c -0.455 -0.307 -1.236 -0.374 -1.693 -0.263 -0.074 0.018 -0.149 -0.029 -0.167 -0.103 -0.018 -0.073 0.029 -0.143 0.103 -0.16 0.131 -0.032 0.28 -0.059 0.443 -0.064 m 0.032 0.513 c 0.433 -0.008 0.886 0.112 1.212 0.34 0.052 0.036 0.061 0.102 0.026 0.154 c -0.036 0.052 -0.102 0.074 -0.154 0.038 -0.379 -0.265 -0.983 -0.377 -1.456 -0.263 -0.061 0.015 -0.12 -0.022 -0.135 -0.083 -0.015 -0.061 0.022 -0.12 0.083 -0.135 0.135 -0.033 0.279 -0.049 0.423 -0.051 m 0.013 0.475 c 0.389 -0.005 0.722 0.095 1 0.289 0.042 0.028 0.048 0.08 0.019 0.122 -0.029 0.041 -0.081 0.054 -0.122 0.026 c -0.331 -0.23 -0.767 -0.305 -1.283 -0.218 -0.05 0.008 -0.094 -0.027 -0.103 -0.077 -0.008 -0.05 0.027 -0.094 0.077 -0.103 0.141 -0.024 0.281 -0.037 0.411 -0.038" style="fill:#353535;fill-opacity:1;fill-rule:evenodd"/>
</svg>
